!!!OTL: Winterrosen
!!!OTL-incipit:O Strassburg, o Strassburg,
!!!ARE: Europa, Mitteleuropa, Deutschland
!!!YOR: 7, S. 61
!!    1894 gedruckt in Leipzig
!!!SCT: Q1145F
!!!TXL: @@DE
!!!YEM: Copyright 1995, estate of Helmut Schaffrath.
**kern	**text
*ICvox	*
*M2/4	*
*k[f#]	*
*G:	*
!LO:TX:a:t=E-B Nr. 1392	!
{4d	O
=1	=1
4g	Straß-
8bL	-burg.
8gJ	o
=2	=2
4a	Straß-
8ccL}	-burg,
{8aJ	du
=3	=3
8bL	wun-
8ddJ	-der-
8ccL	-schö-
8bJ	-ne
=4	=4
4a}	Stadt,
{4d	O
=5	=5
4g	Straß-
8bL	-burg.
8gJ	o
=6	=6
4a	Straß-
8ccL}	-burg,
{8aJ	du
=7	=7
8bL	wun-
8ddJ	-der-
8ccL	-schö-
8bJ	-ne
=8	=8
4a	Stadt,
8r}	.
{8b	da-
=9	=9
8ccL	-rin-
8ccJ	-nen
8eeL	liegt
8ccJ	be-
=10	=10
(8bL	-gra-
8ddJ)	.
8bL}	-ben
{8gJ	so
=11	=11
8aL	man
8ccJ	ni-
8aL	-cher
8f#J	Sol-
=12	=12
(8gL	-dat,
8b	.
8ddJ)}	.
{8b	da-
=13	=13
8ccL	-rin-
8ccJ	-nen
8eeL	liegt
8ccJ	be-
=14	=14
(8bL	-gra-
8ddJ)	.
8bL}	-ben
{8gJ	so
=15	=15
8aL	man
8ccJ	ni-
8aL	-cher
8aJ	Sol-
=16	=16
4g}	-dat.
==	==
!!!AGN: ???
!! Melodievergleich zu Q0145G ff, anderes Lied.
!!    Pausen an den Enden der 4. und 8. Zeile korrigiert.
!!!ONB: ESAC (Essen Associative Code) Database: BALLADE
!!!AMT: simple duple
!!!AIN: vox
!!!EED: Helmut Schaffrath
!!!EEV: 1.0
!!!source: Deutsche Volkslieder mit ihren Melodien Balladen. Herausgegeben vom Deutschen Volksliedarchiv. Siebenterer Band. Freiburg/Breisgau 1982.
!!!page: 61
!!!ENC: Anna Maria Matuszewska
!!!EEV: 2025/03/07
*-	*-
